src/assets/icons-components/consultancy.svg

<svg width="60" height="60" viewBox="0 0 60 60" fill="none" xmlns="http://www.w3.org/2000/svg">
<rect x="0.5" y="0.5" width="59" height="59" stroke="#C3C2C1"/>
<path fill-rule="evenodd" clip-rule="evenodd" d="M26.725 21.8341C27.9722 21.5201 29.2751 21.5201 30.5222 21.8341C32.7347 22.3911 34.2185 23.494 35.0674 25.0314C35.9102 26.5578 36.0462 28.3671 35.8259 30.1485C35.3898 33.6755 33.5097 37.4746 32.1367 39.8894L31.9209 40.269H25.3258L25.11 39.8893C23.7372 37.4746 21.8572 33.6755 21.4212 30.1485C21.201 28.3671 21.337 26.5578 22.1799 25.0314C23.0288 23.494 24.5126 22.3911 26.725 21.8341ZM30.217 23.5013C29.171 23.238 28.0762 23.238 27.0303 23.5013C25.0694 23.995 23.9794 24.9098 23.4005 25.9582C22.8156 27.0175 22.6698 28.3621 22.8603 29.9038C23.2261 32.8622 24.7848 36.1851 26.1065 38.5638H31.1402C32.4621 36.1851 34.021 32.8622 34.3868 29.9038C34.5774 28.362 34.4316 27.0174 33.8467 25.9581C33.2679 24.9098 32.1778 23.995 30.217 23.5013ZM31.5318 43.6794H25.7151V41.9742H31.5318V43.6794Z" fill="#2E2B26"/>
</svg>

<svg width="60" height="60" fill="none" xmlns="http://www.w3.org/2000/svg"><path stroke="#C3C2C1" d="M.5.5h59v59H.5z"/><path fill-rule="evenodd" clip-rule="evenodd" d="M26.725 21.834a7.771 7.771 0 0 1 3.797 0c2.213.557 3.697 1.66 4.545 3.197.843 1.527.98 3.336.759 5.117-.436 3.527-2.316 7.327-3.69 9.741l-.215.38h-6.595l-.216-.38c-1.373-2.414-3.253-6.214-3.689-9.74-.22-1.782-.084-3.591.759-5.118.849-1.537 2.333-2.64 4.545-3.197Zm3.492 1.667a6.527 6.527 0 0 0-3.187 0c-1.96.494-3.05 1.409-3.63 2.457-.584 1.06-.73 2.404-.54 3.946.366 2.958 1.925 6.281 3.247 8.66h5.033c1.322-2.379 2.881-5.702 3.247-8.66.19-1.542.045-2.887-.54-3.946-.58-1.048-1.67-1.963-3.63-2.457Zm1.315 20.178h-5.817v-1.705h5.817v1.705Z" fill="#2E2B26"/></svg>
